X:1
T:Title
%%score ( 1 2 ) { 3 | 4 }
L:1/8
Q:1/4=113
M:4/4
K:G
V:1 treble nm="Grand Piano, Staff 1"
V:2 treble 
V:3 bass nm="Choir Pad, Pisgah, CM"
V:4 bass 
V:1
 z4 z2 .G2 | BG [CE]2 [CE]2 ED | B,D [B,G]2 [EG]2 BA | GB [DA]6 | Bc [Gd]2 [Fd]2 [Gd]2 | %5
 ed [EB]2 [FB]2 [EA]2 | [DG][FA] [GB]2 [EA][DG] D2 | [DF]2 [DG]6- | [DG]2 z2 z4 |] %9
V:2
 D2 [DG]2 [DG]2 E-[EA] | D2 z2 z4 | z4 z2 D2 | D2 z2 z4 | F2 z2 z4 | A2 z2 z4 | x8 | x8 | x8 |] %9
V:3
 D,2 B,2 B,2 B,2 | G,2 G,2 G,2 B,2 | A,2 G,2 C2 G,2 | G,2 F,6 | DC D2 C2 B,2 | A,2 G,2 F,2 A,2 | %6
 G,C D2 CB, B,2 | A,2 B,6- | B,2 z2 z4 |] %9
V:4
 z2 G,2 F,2 E,2 | B,,2 C,2 E,2 G,2 | F,2 E,2 C,2 z2 | B,,2 D,6 | z2 B,2 A,2 G,2 | F,2 E,2 D,2 C,2 | %6
 B,,A,, G,,2 A,,B,, D,2 | D,2 G,6- | G,2 z2 z4 |] %9

